X:49
T:score140
L:1/16
Q:1/4=96
M:2/4
I:linebreak $
K:A
 .B2(Bc edcB) | .c2(cd fedc) | .B2(Bc edcB) | (c2>a2) a4- |$ a2(Bc edcB) | .c2(cd fedc) | %6
 .B2(Bc edcB) | A2 z2 z4 |] %8
